!!!COM:	Bach, Johann Sebastian
!!!OMV:	O Gott, du frommer Gott
!!!OTL:	O Gott, du frommer Gott
**kern	**fb	**kern	**kern	**kern	**kern	**kern	**kern	**kern	**kern	**kern	**kern	**kern	**kern
*part13	*part13	*part12	*part11	*part10	*part9	*part8	*part7	*part6	*part5	*part4	*part3	*part2	*part1
*staff13	*	*staff12	*staff11	*staff10	*staff9	*staff8	*staff7	*staff6	*staff5	*staff4	*staff3	*staff2	*staff1
*I"Continuo	*	*I"Voice	*I"Voice	*I"Voice	*I"Voice	*I"Viola	*I"Violin	*I"Violin	*I"Oboe d'amore	*I"Flute	*I"Timpani	*I"Horn in G	*I"Horn in G
*I'Cont.	*	*I'V	*I'V	*I'V	*I'V	*I'Vla.	*I'Vln.	*I'Vln.	*I'Ob. d'a.	*I'Fl.	*I'Timp.	*I'G Hn.	*I'G Hn.
*clefF4	*	*clefF4	*clefGv2	*clefG2	*clefG2	*clefC3	*clefG2	*clefG2	*clefG2	*clefG2	*clefF4	*clefG2	*clefG2
*ITrd0c0	*	*	*	*	*	*	*	*	*ITrd2c3	*	*	*	*
*k[f#]	*	*k[f#]	*k[f#]	*k[f#]	*k[f#]	*k[f#]	*k[f#]	*k[f#]	*k[f#]	*k[f#]	*k[f#]	*k[f#]	*k[f#]
*M4/4	*	*M4/4	*M4/4	*M4/4	*M4/4	*M4/4	*M4/4	*M4/4	*M4/4	*M4/4	*M4/4	*M4/4	*M4/4
=	=	=	=	=	=	=	=	=	=	=	=	=	=
4GG	.	1r	1r	1r	1r	4b	4dd	4gg	4gg	4gg	4GG	2r	8r
.	.	.	.	.	.	.	.	.	.	.	.	.	8dL
4r	.	.	.	.	.	4r	4r	4r	4r	4r	4r	.	8g
.	.	.	.	.	.	.	.	.	.	.	.	.	8aJ
4GG	.	.	.	.	.	4g	4b	4dd	4dd	4dd	4GG	8r	16bLL
.	.	.	.	.	.	.	.	.	.	.	.	.	16a
.	.	.	.	.	.	.	.	.	.	.	.	8dL	16g
.	.	.	.	.	.	.	.	.	.	.	.	.	16aJJ
4r	.	.	.	.	.	4r	4r	4r	4r	4r	4r	8g	16bLL
.	.	.	.	.	.	.	.	.	.	.	.	.	16dd
.	.	.	.	.	.	.	.	.	.	.	.	8aJ	16cc
.	.	.	.	.	.	.	.	.	.	.	.	.	16eeJJ
=3	=3	=3	=3	=3	=3	=3	=3	=3	=3	=3	=3	=3	=3
4GG	.	1r	1r	1r	1r	4d	4g	8bL	8bL	8bL	4GG	16bLL	16ddLL
.	.	.	.	.	.	.	.	.	.	.	.	16a	16cc
.	.	.	.	.	.	.	.	8d	8d	8d	.	16g	16b
.	.	.	.	.	.	.	.	.	.	.	.	16aJJ	16ccJJ
4r	.	.	.	.	.	4r	4r	8g	8g	8g	4r	16bLL	8ddL
.	.	.	.	.	.	.	.	.	.	.	.	16dd	.
.	.	.	.	.	.	.	.	8aJ	8aJ	8aJ	.	16cc	8ff#J
.	.	.	.	.	.	.	.	.	.	.	.	16eeJJ	.
8r	.	.	.	.	.	8r	8r	16bLL	16bLL	16bLL	8r	16ddLL	8ggL
.	.	.	.	.	.	.	.	16a	16a	16a	.	16cc	.
8DL	6 4	.	.	.	.	8dL	8f#L	16g	16g	16g	8DL	16b	16ddL
.	.	.	.	.	.	.	.	16aJJ	16aJJ	16aJJ	.	16aJJ	16ccJJ
8G	.	.	.	.	.	8d	8g	16bLL	16bLL	16bLL	8GG	8gL	16bLL
.	.	.	.	.	.	.	.	16cc	16cc	16cc	.	.	16cc
8AJ	6	.	.	.	.	8cJ	8f#J	16b	16b	16b	8DJ	8dJ	16b
.	.	.	.	.	.	.	.	16ccJJ	16ccJJ	16ccJJ	.	.	16ccJJ
=4	=4	=4	=4	=4	=4	=4	=4	=4	=4	=4	=4	=4	=4
!!pagebreak:original
8BL	6	1r	1r	1r	1r	8BL	4.g	16ddLL	16ddLL	16ddLL	8GG	8g	8dd
.	.	.	.	.	.	.	.	16gg	16gg	16gg	.	.	.
8c	.	.	.	.	.	8A	.	16ff#	16ff#	16ff#	8r	8r	8r
.	.	.	.	.	.	.	.	16eeJJ	16eeJJ	16eeJJ	.	.	.
8d	4	.	.	.	.	8A	.	16ddLL	16ddLL	16ddLL	8r	8r	8r
.	.	.	.	.	.	.	.	16cc	16cc	16cc	.	.	.
8DJ	3	.	.	.	.	[8dJ	[8f#	16b	16b	16b	8D	8a	8ff#
.	.	.	.	.	.	.	.	16ccJJ	16ccJJ	16ccJJ	.	.	.
8GL	7	.	.	.	.	8dL]	8f#]	16bLL	16bLL	16bLL	8GG	8b	8gg
.	.	.	.	.	.	.	.	16ee	16ee	16ee	.	.	.
8A	5	.	.	.	.	8A	4e	16dd	16dd	16dd	8r	8r	8r
.	.	.	.	.	.	.	.	16ccJJ	16ccJJ	16ccJJ	.	.	.
8B	4	.	.	.	.	8F#	.	16bLL	16bLL	16bLL	4r	8r	8r
.	.	.	.	.	.	.	.	16a	16a	16a	.	.	.
8BBJ	#	.	.	.	.	[8BJ	8d#X	16g	16g	16g	.	8b	8ff#
.	.	.	.	.	.	.	.	16aJJ	16aJJ	16aJJ	.	.	.
=5	=5	=5	=5	=5	=5	=5	=5	=5	=5	=5	=5	=5	=5
8EL	.	1r	1r	1r	1r	8BL]	8e	16gLL	16gLL	16gLL	1r	8g	8ee
.	.	.	.	.	.	.	.	16cc	16cc	16cc	.	.	.
8Fn	6 5	.	.	.	.	8d	4cc	16b	16b	16b	.	8r	8r
.	.	.	.	.	.	.	.	16aJJ	16aJJ	16aJJ	.	.	.
8G	4	.	.	.	.	8e	.	16gLL	16gLL	16gLL	.	8r	8r
.	.	.	.	.	.	.	.	16fn	16fX	16fn	.	.	.
8GGJ	3	.	.	.	.	[8gJ	[8b	16e	16e	16e	.	8g	8dd
.	.	.	.	.	.	.	.	16fJJ	16fJJ	16fJJ	.	.	.
8CL	7	.	.	.	.	8gL]	8bL]	16eLL	16eLL	16eLL	.	8gL	8eeL
.	.	.	.	.	.	.	.	16g	16g	16g	.	.	.
8c	6 4 2	.	.	.	.	8d	8a	16f#X	16f#	16f#X	.	8a	8ddJ
.	.	.	.	.	.	.	.	16aJJ	16aJJ	16aJJ	.	.	.
8B	6	.	.	.	.	8d	8dd	16gLL	16gLL	16gLL	.	8b	[4dd
.	.	.	.	.	.	.	.	16gg	16gg	16gg	.	.	.
8AJ	6	.	.	.	.	8f#J	8ccJ	16ff#	16ff#	16ff#	.	8ccJ	.
.	.	.	.	.	.	.	.	16eeJJ	16eeJJ	16eeJJ	.	.	.
=6	=6	=6	=6	=6	=6	=6	=6	=6	=6	=6	=6	=6	=6
!!pagebreak:original
8BL	.	2.r	2.r	2.r	2r	8gL	8bL	16ddLL	16ddLL	16ddLL	8r	16bLL	16ddLL]
.	.	.	.	.	.	.	.	16cc	16cc	16cc	.	16aJ	16cc
8c	7 5	.	.	.	.	8G	8g	16b	16b	16b	8GG	8gJ	16b
.	.	.	.	.	.	.	.	32ccL	32ccL	32ccL	.	.	16ccJJ
.	.	.	.	.	.	.	.	32ddJJJ	32ddJJJ	32ddJJJ	.	.	.
8d	.	.	.	.	.	8d	8g	8.aL	8.aL	8.aL	16DLL	16dLL	8.aL
.	.	.	.	.	.	.	.	.	.	.	16D	16BJ	.
8DJ	.	.	.	.	.	8AJ	8f#J	.	.	.	16D	8dJ	.
.	.	.	.	.	.	.	.	16gJk	16gJk	16gJk	16DJJ	.	16gJk
8GGL	.	.	.	.	4r	4B	4d	4g	4g	4g	4GG	4B	4g
8D	.	.	.	.	.	.	.	.	.	.	.	.	.
8G	.	8GL	8GL	4B	4d	4r	4r	4r	4r	4r	4r	4r	8r
8F#J	.	8F#J	8AJ	.	.	.	.	.	.	.	.	.	8d
=7	=7	=7	=7	=7	=7	=7	=7	=7	=7	=7	=7	=7	=7
8EL	.	8EL	4B	4.e	4g	2r	2r	2r	2r	2r	2r	8r	16gLL
.	.	.	.	.	.	.	.	.	.	.	.	.	16aJ
8D	.	8D	.	.	.	.	.	.	.	.	.	8dL	8gJ
8C	6 5	8C	4A	.	4a	.	.	.	.	.	.	8g	8r
8DJ	.	8DJ	.	8f#	.	.	.	.	.	.	.	8dJ	8a
8GGL	.	4G	4G	4g	4b	8r	8r	8r	8r	8r	4GG	8r	16bLL
.	.	.	.	.	.	.	.	.	.	.	.	.	16ccJ
8G	.	.	.	.	.	8GL	8gL	8dL	8dL	8dL	.	8d	8bJ
8E	6	8r	4G	4c	4ee	8G	8g	8g	8g	8g	4r	16gLL	8r
.	.	.	.	.	.	.	.	.	.	.	.	16aJ	.
8CJ	.	8c	.	.	.	8EJ	8cJ	8aJ	8aJ	8aJ	.	8gJ	8ee
=8	=8	=8	=8	=8	=8	=8	=8	=8	=8	=8	=8	=8	=8
!!pagebreak:original
8GL	.	16BLL	8GL	16dLL	4.dd	8GL	16dLL	16bLL	16bLL	16bLL	8r	8r	16ddLL
.	.	16c	.	16e	.	.	16e	16a	16a	16a	.	.	16ccJ
16BBL	6	16B	8DJ	16d	.	8D	16d	16g	16g	16g	8GGL	8dL	8ddJ
16CJJ	.	16cJJ	.	16eJJ	.	.	16eJJ	16aJJ	16aJJ	16aJJ	.	.	.
8DL	8	8dL	4d	8f#L	.	8d	8f#L	16bLL	16bLL	16bLL	8D	8B	8r
.	.	.	.	.	.	.	.	16cc	16cc	16cc	.	.	.
8DDJ	7	8DJ	.	8aJ	8cc	8dJ	8aJ	16b	16b	16b	8DJ	8aJ	8ff#
.	.	.	.	.	.	.	.	16ccJJ	16ccJJ	16ccJJ	.	.	.
8GGL	.	4G	4d	4g	4b	8dL	8gL	16ddLL	16ddLL	16ddLL	8GG	8b	8gg
.	.	.	.	.	.	.	.	16gg	16gg	16gg	.	.	.
8G	.	.	.	.	.	16BL	8b	16ff#	16ff#	16ff#	8r	8r	8r
.	.	.	.	.	.	16cJJ	.	16eeJJ	16eeJJ	16eeJJ	.	.	.
8F#	6	4r	4r	4r	4r	8dL	8a	16ddLL	16ddLL	16ddLL	8r	8r	8r
.	.	.	.	.	.	.	.	16cc	16cc	16cc	.	.	.
8DJ	7	.	.	.	.	[8dJ	[8f#J	16b	16b	16b	8D	8a	8ff#
.	.	.	.	.	.	.	.	16ccJJ	16ccJJ	16ccJJ	.	.	.
=9	=9	=9	=9	=9	=9	=9	=9	=9	=9	=9	=9	=9	=9
8GL	7	1r	1r	1r	1r	8dL]	8f#]	16bLL	16bLL	16bLL	8GG	8b	8gg
.	.	.	.	.	.	.	.	16ee	16ee	16ee	.	.	.
8A	5	.	.	.	.	8A	4e	16dd	16dd	16dd	8r	8r	8r
.	.	.	.	.	.	.	.	16ccJJ	16ccJJ	16ccJJ	.	.	.
8B	4	.	.	.	.	8F#	.	16bLL	16bLL	16bLL	4r	8r	8r
.	.	.	.	.	.	.	.	16a	16a	16a	.	.	.
8BBJ	#	.	.	.	.	[8BJ	8d#X	16g	16g	16g	.	8b	8ff#
.	.	.	.	.	.	.	.	16aJJ	16aJJ	16aJJ	.	.	.
8EL	.	.	.	.	.	8BL]	8e	16gLL	16gLL	16gLL	2r	8g	8ee
.	.	.	.	.	.	.	.	16cc	16cc	16cc	.	.	.
8Fn	6 5	.	.	.	.	8d	4cc	16b	16b	16b	.	8r	8r
.	.	.	.	.	.	.	.	16aJJ	16aJJ	16aJJ	.	.	.
8G	4	.	.	.	.	8e	.	16gLL	16gLL	16gLL	.	8r	8r
.	.	.	.	.	.	.	.	16fn	16fX	16fn	.	.	.
8GGJ	3	.	.	.	.	[8gJ	[8b	16e	16e	16e	.	8b	8dd
.	.	.	.	.	.	.	.	16fJJ	16fJJ	16fJJ	.	.	.
=10	=10	=10	=10	=10	=10	=10	=10	=10	=10	=10	=10	=10	=10
!!pagebreak:original
8CL	7	4r	4r	4r	4r	8g]	8bL]	16eLL	16eLL	16eLL	1r	8cc	8eeL
.	.	.	.	.	.	.	.	16g	16g	16g	.	.	.
8D	5	.	.	.	.	4d	8a	16f#	16f#	16f#	.	8r	8dd
.	.	.	.	.	.	.	.	16aJJ	16aJJ	16aJJ	.	.	.
8E	7	8EL	4G	8gL	4ee	.	8g	16gLL	16gLL	16gLL	.	8r	8g
.	.	.	.	.	.	.	.	16gg	16gg	16gg	.	.	.
8F#J	7 5	8F#J	.	8aJ	.	8c	8aJ	16ff#	16ff#	16ff#	.	8a	8eeJ
.	.	.	.	.	.	.	.	16eeJJ	16eeJJ	16eeJJ	.	.	.
8GL	.	4G	8GL	8b	4.dd	8BL	8b	16ddLL	16ddLL	16ddLL	.	8bL	16ddLL
.	.	.	.	.	.	.	.	16cc	16cc	16cc	.	.	16ccJ
8BB	6	.	8B	4g	.	8d	4g	16b	16b	16b	.	8gJ	8ddJ
.	.	.	.	.	.	.	.	32ccL	32ccL	32ccL	.	.	.
.	.	.	.	.	.	.	.	32ddJJJ	32ddJJJ	32ddJJJ	.	.	.
8C	9 6	8CL	8e	.	.	8e	.	8.aL	8.aL	8.aL	.	16ccLL	8r
.	.	.	.	.	.	.	.	.	.	.	.	16bJ	.
8DJ	7 5	8DJ	8AJ	8f#	8cc	8f#J	8f#	.	.	.	.	8ccJ	8cc
.	.	.	.	.	.	.	.	16gJk	16gJk	16gJk	.	.	.
=11	=11	=11	=11	=11	=11	=11	=11	=11	=11	=11	=11	=11	=11
8EL	5	4.E	8GL	4g	4b	4B	4g	4g	4g	4g	4r	8r	16bLL
.	.	.	.	.	.	.	.	.	.	.	.	.	16aJ
8F#	.	.	8AJ	.	.	.	.	.	.	.	.	8d	8bJ
8G	5	.	8BL	4g	4b	4r	4r	4r	4r	4r	8GG	16gLL	8r
.	.	.	.	.	.	.	.	.	.	.	.	16f#J	.
8EJ	.	8D	16cL	.	.	.	.	.	.	.	8r	8gJ	8b
.	.	.	16dJJ	.	.	.	.	.	.	.	.	.	.
8CL	6 5	4C	4e	4g	2a	2r	2r	2r	2r	2r	4r	8r	16aLL
.	.	.	.	.	.	.	.	.	.	.	.	.	16b
8AA	.	.	.	.	.	.	.	.	.	.	.	8ee	16a
.	.	.	.	.	.	.	.	.	.	.	.	.	16bJJ
8D	.	4D	8dL	4f#	.	.	.	.	.	.	16DLL	16aLL	16ccLL
.	.	.	.	.	.	.	.	.	.	.	16D	16b	16dd
8DDJ	.	.	8AJ	.	.	.	.	.	.	.	16D	16a	16cc
.	.	.	.	.	.	.	.	.	.	.	16DJJ	16bJJ	16ddJJ
=12	=12	=12	=12	=12	=12	=12	=12	=12	=12	=12	=12	=12	=12
!!pagebreak:original
4GG	.	4GG	4B	4g	4g	4b	4dd	4gg	4gg	4gg	4GG	8g	8bL
.	.	.	.	.	.	.	.	.	.	.	.	8r	8d
4r	.	4r	4r	4r	4r	4r	4r	4r	4r	4r	4r	4r	8g
.	.	.	.	.	.	.	.	.	.	.	.	.	8aJ
4GG	.	2r	2r	2r	2r	4g	4b	4dd	4dd	4dd	4GG	8r	16bLL
.	.	.	.	.	.	.	.	.	.	.	.	.	16a
.	.	.	.	.	.	.	.	.	.	.	.	8dL	16g
.	.	.	.	.	.	.	.	.	.	.	.	.	16aJJ
4r	.	.	.	.	.	4r	4r	4r	4r	4r	4r	8g	16bLL
.	.	.	.	.	.	.	.	.	.	.	.	.	16dd
.	.	.	.	.	.	.	.	.	.	.	.	8aJ	16cc
.	.	.	.	.	.	.	.	.	.	.	.	.	16eeJJ
=13	=13	=13	=13	=13	=13	=13	=13	=13	=13	=13	=13	=13	=13
4GG	.	2r	2r	2r	2r	4d	4g	8bL	8bL	8bL	4GG	16bLL	16ddLL
.	.	.	.	.	.	.	.	.	.	.	.	16a	16cc
.	.	.	.	.	.	.	.	8d	8d	8d	.	16g	16b
.	.	.	.	.	.	.	.	.	.	.	.	16aJJ	16ccJJ
4r	.	.	.	.	.	4r	4r	8g	8g	8g	4r	16bLL	8ddL
.	.	.	.	.	.	.	.	.	.	.	.	16dd	.
.	.	.	.	.	.	.	.	8aJ	8aJ	8aJ	.	16cc	8ff#J
.	.	.	.	.	.	.	.	.	.	.	.	16eeJJ	.
8r	.	4r	4r	4r	4r	8r	8r	16bLL	16bLL	16bLL	8r	16ddLL	8ggL
.	.	.	.	.	.	.	.	16a	16a	16a	.	16cc	.
8DL	6 4	.	.	.	.	8dL	8f#L	16g	16g	16g	8DL	16b	16ddL
.	.	.	.	.	.	.	.	16aJJ	16aJJ	16aJJ	.	16aJJ	16ccJJ
8G	.	4r	4r	4r	4r	8d	8g	16bLL	16bLL	16bLL	8GG	8gL	16bLL
.	.	.	.	.	.	.	.	16cc	16cc	16cc	.	.	16cc
8AJ	6	.	.	.	.	8cJ	8f#J	16b	16b	16b	8DJ	8dJ	16b
.	.	.	.	.	.	.	.	16ccJJ	16ccJJ	16ccJJ	.	.	16ccJJ
=14	=14	=14	=14	=14	=14	=14	=14	=14	=14	=14	=14	=14	=14
!!pagebreak:original
8BL	6	1r	1r	1r	1r	8BL	4.g	16ddLL	16ddLL	16ddLL	8GG	8g	8b
.	.	.	.	.	.	.	.	16gg	16gg	16gg	.	.	.
8c	.	.	.	.	.	8A	.	16ff#	16ff#	16ff#	8r	8r	8r
.	.	.	.	.	.	.	.	16eeJJ	16eeJJ	16eeJJ	.	.	.
8d	4	.	.	.	.	8A	.	16ddLL	16ddLL	16ddLL	8r	8r	8r
.	.	.	.	.	.	.	.	16cc	16cc	16cc	.	.	.
8DJ	3	.	.	.	.	[8dJ	[8f#	16b	16b	16b	8D	8a	8ff#
.	.	.	.	.	.	.	.	16ccJJ	16ccJJ	16ccJJ	.	.	.
8GL	7	.	.	.	.	8dL]	8f#]	16bLL	16bLL	16bLL	8GG	8b	8gg
.	.	.	.	.	.	.	.	16ee	16ee	16ee	.	.	.
8A	5	.	.	.	.	8A	4e	16dd	16dd	16dd	8r	8r	8r
.	.	.	.	.	.	.	.	16ccJJ	16ccJJ	16ccJJ	.	.	.
8B	4	.	.	.	.	8F#	.	16bLL	16bLL	16bLL	4r	8r	8r
.	.	.	.	.	.	.	.	16a	16a	16a	.	.	.
8BBJ	#	.	.	.	.	[8BJ	8d#X	16g	16g	16g	.	8b	8ff#
.	.	.	.	.	.	.	.	16aJJ	16aJJ	16aJJ	.	.	.
=15	=15	=15	=15	=15	=15	=15	=15	=15	=15	=15	=15	=15	=15
8EL	.	1r	1r	1r	1r	8BL]	8e	16gLL	16gLL	16gLL	1r	8g	8ee
.	.	.	.	.	.	.	.	16cc	16cc	16cc	.	.	.
8Fn	6 5	.	.	.	.	8d	4cc	16b	16b	16b	.	8r	8r
.	.	.	.	.	.	.	.	16aJJ	16aJJ	16aJJ	.	.	.
8G	4	.	.	.	.	8e	.	16gLL	16gLL	16gLL	.	8r	8r
.	.	.	.	.	.	.	.	16fn	16fX	16fn	.	.	.
8GGJ	3	.	.	.	.	[8gJ	[8b	16e	16e	16e	.	8g	8dd
.	.	.	.	.	.	.	.	16fJJ	16fJJ	16fJJ	.	.	.
8CL	7	.	.	.	.	8gL]	8bL]	16eLL	16eLL	16eLL	.	8gL	8eeL
.	.	.	.	.	.	.	.	16g	16g	16g	.	.	.
8c	6 4 2	.	.	.	.	8d	8a	16f#X	16f#	16f#X	.	8a	8ddJ
.	.	.	.	.	.	.	.	16aJJ	16aJJ	16aJJ	.	.	.
8B	6	.	.	.	.	8d	8dd	16gLL	16gLL	16gLL	.	8b	[4dd
.	.	.	.	.	.	.	.	16gg	16gg	16gg	.	.	.
8AJ	6	.	.	.	.	8f#J	8ccJ	16ff#	16ff#	16ff#	.	8ccJ	.
.	.	.	.	.	.	.	.	16eeJJ	16eeJJ	16eeJJ	.	.	.
=16	=16	=16	=16	=16	=16	=16	=16	=16	=16	=16	=16	=16	=16
!!pagebreak:original
8BL	.	2r	2r	2r	2r	8gL	8bL	16ddLL	16ddLL	16ddLL	8r	16bLL	16ddLL]
.	.	.	.	.	.	.	.	16cc	16cc	16cc	.	16aJ	16cc
8c	7 5	.	.	.	.	8G	8g	16b	16b	16b	8GG	8gJ	16b
.	.	.	.	.	.	.	.	32ccL	32ccL	32ccL	.	.	16ccJJ
.	.	.	.	.	.	.	.	32ddJJJ	32ddJJJ	32ddJJJ	.	.	.
8d	.	.	.	.	.	8d	8g	8.aL	8.aL	8.aL	16DLL	16dLL	8.aL
.	.	.	.	.	.	.	.	.	.	.	16D	16BJ	.
8DJ	.	.	.	.	.	8AJ	8f#J	.	.	.	16D	8dJ	.
.	.	.	.	.	.	.	.	16gJk	16gJk	16gJk	16DJJ	.	16gJk
8GGL	.	4r	4r	4r	4r	4B	4d	4g	4g	4g	4GG	4B	4g
8D	.	.	.	.	.	.	.	.	.	.	.	.	.
8G	.	8GL	8GL	4B	4d	4r	4r	4r	4r	4r	4r	4r	8r
8F#J	.	8F#J	8AJ	.	.	.	.	.	.	.	.	.	8d
=17	=17	=17	=17	=17	=17	=17	=17	=17	=17	=17	=17	=17	=17
8EL	.	8EL	4B	4.e	4g	2r	2r	2r	2r	2r	2r	8r	16gLL
.	.	.	.	.	.	.	.	.	.	.	.	.	16aJ
8D	.	8D	.	.	.	.	.	.	.	.	.	8dL	8gJ
8C	6 5	8C	4A	.	4a	.	.	.	.	.	.	8g	8r
8DJ	.	8DJ	.	8f#	.	.	.	.	.	.	.	8dJ	8a
8GGL	.	4G	4G	4g	4b	8r	8r	8r	8r	8r	4GG	8r	16bLL
.	.	.	.	.	.	.	.	.	.	.	.	.	16ccJ
8G	.	.	.	.	.	8GL	8gL	8dL	8dL	8dL	.	8d	8bJ
8E	6	8r	4G	4c	4ee	8G	8g	8g	8g	8g	4r	16gLL	8r
.	.	.	.	.	.	.	.	.	.	.	.	16aJ	.
8CJ	.	8c	.	.	.	8EJ	8cJ	8aJ	8aJ	8aJ	.	8gJ	8ee
=18	=18	=18	=18	=18	=18	=18	=18	=18	=18	=18	=18	=18	=18
!!pagebreak:original
8GL	.	16BLL	8GL	16dLL	4.dd	8GL	16dLL	16bLL	16bLL	16bLL	8r	8r	16ddLL
.	.	16c	.	16e	.	.	16e	16a	16a	16a	.	.	16ccJ
16BBL	6	16B	8DJ	16d	.	8D	16d	16g	16g	16g	8GGL	8dL	8ddJ
16CJJ	.	16cJJ	.	16eJJ	.	.	16eJJ	16aJJ	16aJJ	16aJJ	.	.	.
8DL	8	8dL	4d	8f#L	.	8d	8f#L	16bLL	16bLL	16bLL	8D	8B	8r
.	.	.	.	.	.	.	.	16cc	16cc	16cc	.	.	.
8DDJ	7	8DJ	.	8aJ	8cc	8dJ	8aJ	16b	16b	16b	8DJ	8aJ	8ff#
.	.	.	.	.	.	.	.	16ccJJ	16ccJJ	16ccJJ	.	.	.
8GGL	.	4G	4d	4g	4b	8dL	8gL	16ddLL	16ddLL	16ddLL	8GG	8b	8gg
.	.	.	.	.	.	.	.	16gg	16gg	16gg	.	.	.
8G	.	.	.	.	.	16BL	8b	16ff#	16ff#	16ff#	8r	8r	8r
.	.	.	.	.	.	16cJJ	.	16eeJJ	16eeJJ	16eeJJ	.	.	.
8F#	6	4r	4r	4r	4r	8dL	8a	16ddLL	16ddLL	16ddLL	8r	8r	8r
.	.	.	.	.	.	.	.	16cc	16cc	16cc	.	.	.
8DJ	7	.	.	.	.	[8dJ	[8f#J	16b	16b	16b	8D	8a	8ff#
.	.	.	.	.	.	.	.	16ccJJ	16ccJJ	16ccJJ	.	.	.
=19	=19	=19	=19	=19	=19	=19	=19	=19	=19	=19	=19	=19	=19
8GL	7	1r	1r	1r	1r	8dL]	8f#]	16bLL	16bLL	16bLL	8GG	8b	8gg
.	.	.	.	.	.	.	.	16ee	16ee	16ee	.	.	.
8A	5	.	.	.	.	8A	4e	16dd	16dd	16dd	8r	8r	8r
.	.	.	.	.	.	.	.	16ccJJ	16ccJJ	16ccJJ	.	.	.
8B	4	.	.	.	.	8F#	.	16bLL	16bLL	16bLL	4r	8r	8r
.	.	.	.	.	.	.	.	16a	16a	16a	.	.	.
8BBJ	#	.	.	.	.	[8BJ	8d#X	16g	16g	16g	.	8b	8ff#
.	.	.	.	.	.	.	.	16aJJ	16aJJ	16aJJ	.	.	.
8EL	.	.	.	.	.	8BL]	8e	16gLL	16gLL	16gLL	2r	8g	8ee
.	.	.	.	.	.	.	.	16cc	16cc	16cc	.	.	.
8Fn	6 5	.	.	.	.	8d	4cc	16b	16b	16b	.	8r	8r
.	.	.	.	.	.	.	.	16aJJ	16aJJ	16aJJ	.	.	.
8G	4	.	.	.	.	8e	.	16gLL	16gLL	16gLL	.	8r	8r
.	.	.	.	.	.	.	.	16fn	16fX	16fn	.	.	.
8GGJ	3	.	.	.	.	[8gJ	[8b	16e	16e	16e	.	8b	8dd
.	.	.	.	.	.	.	.	16fJJ	16fJJ	16fJJ	.	.	.
=20	=20	=20	=20	=20	=20	=20	=20	=20	=20	=20	=20	=20	=20
!!pagebreak:original
8CL	7	4r	4r	4r	4r	8g]	8bL]	16eLL	16eLL	16eLL	1r	8cc	8eeL
.	.	.	.	.	.	.	.	16g	16g	16g	.	.	.
8D	5	.	.	.	.	4d	8a	16f#	16f#	16f#	.	8r	8dd
.	.	.	.	.	.	.	.	16aJJ	16aJJ	16aJJ	.	.	.
8E	7	8EL	4G	8gL	4ee	.	8g	16gLL	16gLL	16gLL	.	8r	8g
.	.	.	.	.	.	.	.	16gg	16gg	16gg	.	.	.
8F#J	7 5	8F#J	.	8aJ	.	8c	8aJ	16ff#	16ff#	16ff#	.	8a	8eeJ
.	.	.	.	.	.	.	.	16eeJJ	16eeJJ	16eeJJ	.	.	.
8GL	.	4G	8GL	8b	4.dd	8BL	8b	16ddLL	16ddLL	16ddLL	.	8bL	16ddLL
.	.	.	.	.	.	.	.	16cc	16cc	16cc	.	.	16ccJ
8BB	6	.	8B	4g	.	8d	4g	16b	16b	16b	.	8gJ	8ddJ
.	.	.	.	.	.	.	.	32ccL	32ccL	32ccL	.	.	.
.	.	.	.	.	.	.	.	32ddJJJ	32ddJJJ	32ddJJJ	.	.	.
8C	9 6	8CL	8e	.	.	8e	.	8.aL	8.aL	8.aL	.	16ccLL	8r
.	.	.	.	.	.	.	.	.	.	.	.	16bJ	.
8DJ	7 5	8DJ	8AJ	8f#	8cc	8f#J	8f#	.	.	.	.	8ccJ	8cc
.	.	.	.	.	.	.	.	16gJk	16gJk	16gJk	.	.	.
=21	=21	=21	=21	=21	=21	=21	=21	=21	=21	=21	=21	=21	=21
8EL	5	4.E	8GL	4g	4b	4B	4g	4g	4g	4g	4r	8r	16bLL
.	.	.	.	.	.	.	.	.	.	.	.	.	16aJ
8F#	.	.	8AJ	.	.	.	.	.	.	.	.	8d	8bJ
8G	5	.	8BL	4g	4b	4r	4r	4r	4r	4r	8GG	16gLL	8r
.	.	.	.	.	.	.	.	.	.	.	.	16f#J	.
8EJ	.	8D	16cL	.	.	.	.	.	.	.	8r	8gJ	8b
.	.	.	16dJJ	.	.	.	.	.	.	.	.	.	.
8CL	6 5	4C	4e	4g	2a	2r	2r	2r	2r	2r	4r	8r	16aLL
.	.	.	.	.	.	.	.	.	.	.	.	.	16b
8AA	.	.	.	.	.	.	.	.	.	.	.	8ee	16a
.	.	.	.	.	.	.	.	.	.	.	.	.	16bJJ
8D	.	4D	8dL	4f#	.	.	.	.	.	.	16DLL	16aLL	16ccLL
.	.	.	.	.	.	.	.	.	.	.	16D	16b	16dd
8DDJ	.	.	8AJ	.	.	.	.	.	.	.	16D	16a	16cc
.	.	.	.	.	.	.	.	.	.	.	16DJJ	16bJJ	16ddJJ
=22	=22	=22	=22	=22	=22	=22	=22	=22	=22	=22	=22	=22	=22
!!pagebreak:original
4GG	.	4GG	4B	4g	4g	4b	4dd	4gg	4gg	4gg	4GG	16gLL	16bLL
.	.	.	.	.	.	.	.	.	.	.	.	16a	16cc
.	.	.	.	.	.	.	.	.	.	.	.	16g	16b
.	.	.	.	.	.	.	.	.	.	.	.	16aJJ	16ccJJ
4r	.	4r	4r	4r	4r	4r	4r	4r	4r	4r	4r	16bLL	16ddLL
.	.	.	.	.	.	.	.	.	.	.	.	16cc	16ee
.	.	.	.	.	.	.	.	.	.	.	.	16b	16dd
.	.	.	.	.	.	.	.	.	.	.	.	16ccJJ	16eeJJ
4GG	.	2r	2r	2r	2r	4a	4cc	4ff#	4ff#	4ff#	4GG	16aLL	16ccLL
.	.	.	.	.	.	.	.	.	.	.	.	16b	16dd
.	.	.	.	.	.	.	.	.	.	.	.	16a	16cc
.	.	.	.	.	.	.	.	.	.	.	.	16bJJ	16ddJJ
4r	.	.	.	.	.	4r	4r	4r	4r	4r	4r	16ccLL	16eeLL
.	.	.	.	.	.	.	.	.	.	.	.	16dd	16ff#
.	.	.	.	.	.	.	.	.	.	.	.	16cc	16ee
.	.	.	.	.	.	.	.	.	.	.	.	16ddJJ	16ff#JJ
=23	=23	=23	=23	=23	=23	=23	=23	=23	=23	=23	=23	=23	=23
4GG	.	1r	1r	1r	1r	4b	4dd	8ggL	8ggL	8ggL	4GG	16bLL	16ddLL
.	.	.	.	.	.	.	.	.	.	.	.	16a	16cc
.	.	.	.	.	.	.	.	8d	8d	8d	.	16g	16b
.	.	.	.	.	.	.	.	.	.	.	.	16aJJ	16ccJJ
4r	.	.	.	.	.	4r	4r	8g	8g	8g	4r	16bLL	8ddL
.	.	.	.	.	.	.	.	.	.	.	.	16dd	.
.	.	.	.	.	.	.	.	8aJ	8aJ	8aJ	.	16cc	8ff#J
.	.	.	.	.	.	.	.	.	.	.	.	16eeJJ	.
8r	.	.	.	.	.	8r	8r	16bLL	16bLL	16bLL	8r	16ddLL	8ggL
.	.	.	.	.	.	.	.	16a	16a	16a	.	16cc	.
8DL	6 4	.	.	.	.	8dL	8f#L	16g	16g	16g	8DL	16b	16ddL
.	.	.	.	.	.	.	.	16aJJ	16aJJ	16aJJ	.	16aJJ	16ccJJ
8G	.	.	.	.	.	8d	8g	16bLL	16bLL	16bLL	8GG	8gL	16bLL
.	.	.	.	.	.	.	.	16cc	16cc	16cc	.	.	16cc
8AJ	6	.	.	.	.	8cJ	8f#J	16b	16b	16b	8DJ	8dJ	16b
.	.	.	.	.	.	.	.	16ccJJ	16ccJJ	16ccJJ	.	.	16ccJJ
=24	=24	=24	=24	=24	=24	=24	=24	=24	=24	=24	=24	=24	=24
!!pagebreak:original
8BL	6	1r	1r	1r	1r	8BL	4.g	16ddLL	16ddLL	16ddLL	8GG	8g	8dd
.	.	.	.	.	.	.	.	16gg	16gg	16gg	.	.	.
8c	.	.	.	.	.	8A	.	16ff#	16ff#	16ff#	8r	8r	8r
.	.	.	.	.	.	.	.	16eeJJ	16eeJJ	16eeJJ	.	.	.
8d	4	.	.	.	.	8A	.	16ddLL	16ddLL	16ddLL	8r	8r	8r
.	.	.	.	.	.	.	.	16cc	16cc	16cc	.	.	.
8DJ	3	.	.	.	.	[8dJ	[8f#	16b	16b	16b	8D	8a	8ff#
.	.	.	.	.	.	.	.	16ccJJ	16ccJJ	16ccJJ	.	.	.
8GL	7	.	.	.	.	8dL]	8f#]	16bLL	16bLL	16bLL	8GG	8b	8gg
.	.	.	.	.	.	.	.	16ee	16ee	16ee	.	.	.
8A	5	.	.	.	.	8A	4e	16dd	16dd	16dd	8r	8r	8r
.	.	.	.	.	.	.	.	16ccJJ	16ccJJ	16ccJJ	.	.	.
8B	4	.	.	.	.	8F#	.	16bLL	16bLL	16bLL	4r	8r	8r
.	.	.	.	.	.	.	.	16a	16a	16a	.	.	.
8BBJ	#	.	.	.	.	[8BJ	8d#X	16g	16g	16g	.	8b	8ff#
.	.	.	.	.	.	.	.	16aJJ	16aJJ	16aJJ	.	.	.
=25	=25	=25	=25	=25	=25	=25	=25	=25	=25	=25	=25	=25	=25
8EL	.	4r	4r	4r	4r	8B]	8e	16gLL	16gLL	16gLL	1r	8g	8ee
.	.	.	.	.	.	.	.	16cc	16cc	16cc	.	.	.
8Fn	6 5	.	.	.	.	4d	4cc	16b	16b	16b	.	8r	8r
.	.	.	.	.	.	.	.	16aJJ	16aJJ	16aJJ	.	.	.
8G	4	4G	4d	4g	4dd	.	.	16gLL	16gLL	16gLL	.	8r	8r
.	.	.	.	.	.	.	.	16fn	16fX	16fn	.	.	.
8GGJ	.	.	.	.	.	8g	8b	16e	16e	16e	.	8g	8dd
.	.	.	.	.	.	.	.	16fJJ	16fJJ	16fJJ	.	.	.
8CL	.	8CL	4c	4g	4ee	8gL	8ccL	16eLL	16eLL	16eLL	.	8GL	16eeLL
.	.	.	.	.	.	.	.	16g	16g	16g	.	.	16ddJ
8D	4 2	8D	.	.	.	8c	8f#	16f#X	16f#	16f#X	.	8gJ	8eeJ
.	.	.	.	.	.	.	.	16aJJ	16aJJ	16aJJ	.	.	.
8E	.	8E	8BL	4g	4ee	8B	8e	16gLL	16gLL	16gLL	.	16gLL	8r
.	.	.	.	.	.	.	.	16gg	16gg	16gg	.	16f#J	.
8C#XJ	6 5	8C#XJ	8AJ	.	.	8AJ	8gJ	16ff#	16ff#	16ff#	.	8gJ	8ee
.	.	.	.	.	.	.	.	16eeJJ	16eeJJ	16eeJJ	.	.	.
=26	=26	=26	=26	=26	=26	=26	=26	=26	=26	=26	=26	=26	=26
!!pagebreak:original
8DL	.	4D	4A	4f#	4a	8AL	8f#L	16ddLL	16ddLL	16ddLL	8r	8r	8aL
.	.	.	.	.	.	.	.	16cc	16cc	16cc	.	.	.
8DD	.	.	.	.	.	16dL	8g	16b	16b	16b	16DLL	8ddL	8dJ
.	.	.	.	.	.	16cJJ	.	32ccL	32ccL	32ccL	16DJJ	.	.
.	.	.	.	.	.	.	.	32ddJJJ	32ddJJJ	32ddJJJ	.	.	.
8D	.	8DL	4d	4f#	4a	8dL	8f#	8.aL	8.aL	8.aL	8DL	8a	8r
8CJ	.	8CJ	.	.	.	8AJ	8eJ	.	.	.	8DJ	8dJ	8a
.	.	.	.	.	.	.	.	16gJk	16gJk	16gJk	.	.	.
8BBL	.	8BBL	8GL	4fn	4dd	4B	4d	4g	4g	4g	4GG	8r	16ddLL
.	.	.	.	.	.	.	.	.	.	.	.	.	16ccJ
8C	.	8C	8AJ	.	.	.	.	.	.	.	.	8ccL	8ddJ
8D	.	8D	8BL	4f	4dd	4r	4r	4r	4r	4r	4r	8b	8r
8BBJ	.	8BBJ	16cL	.	.	.	.	.	.	.	.	8gJ	8dd
.	.	.	16dJJ	.	.	.	.	.	.	.	.	.	.
=27	=27	=27	=27	=27	=27	=27	=27	=27	=27	=27	=27	=27	=27
8CL	.	4C	4c	4e	4g	2r	2r	2r	2r	2r	1r	8r	8gL
8CC	.	.	.	.	.	.	.	.	.	.	.	8gL	8ccJ
8GG	.	8GL	4B	8dL	4b	.	.	.	.	.	.	8G	8r
8EJ	.	8EJ	.	8gJ	.	.	.	.	.	.	.	8gJ	8b
8C#XL	.	8C#XL	8eL	8gL	4a	8r	8r	8r	8r	8r	.	8r	8aL
8D	.	8D	8d	8f#X	.	8dL	8f#L	8aL	8aL	8aL	.	8aL	8ddJ
8BB	.	8BB	8d	8f#	4g	8d	8f#	8dd	8dd	8dd	.	8b	8r
8C#J	.	8C#J	8AJ	8eJ	.	[8AJ	[8aJ	8eeJ	8eeJ	8eeJ	.	8aJ	8ee
=28	=28	=28	=28	=28	=28	=28	=28	=28	=28	=28	=28	=28	=28
!!pagebreak:original
8DL	.	8DL	4A	16eLL	4f#	16ALL]	8aL]	16ff#LL	16ff#LL	16ff#LL	8r	8r	16ddLL
.	.	.	.	16g	.	16d	.	16ee	16ee	16ee	.	.	16cc#XJ
8AA	.	8A	.	16f#	.	16e	16ddL	16dd	16dd	16dd	8D	8a	8ddJ
.	.	.	.	16eJJ	.	16f#JJ	16cc#XJJ	16eeJJ	16eeJJ	16eeJJ	.	.	.
8FF#	.	8F#	4A	8dL	4f#	8gL	[4dd	16ff#LL	16ff#LL	16ff#LL	16DLL	16ddLL	8r
.	.	.	.	.	.	.	.	16gg	16gg	16gg	16DJ	16cc#XJ	.
8DDJ	.	8DJ	.	8dJ	.	8eJ	.	16ff#	16ff#	16ff#	8DJ	8ddJ	8dd
.	.	.	.	.	.	.	.	16ggJJ	16ggJJ	16ggJJ	.	.	.
8AAL	.	2AA	2A	4d	2e	8dL	8ddL]	16aaLL	8aa	16aaLL	2r	8r	8ddL
.	.	.	.	.	.	.	.	16ddd	.	16ddd	.	.	.
8GG	.	.	.	.	.	8f#	16eeL	16ccc#X	8r	16ccc#X	.	8ggL	16eeL
.	.	.	.	.	.	.	16ff#JJ	16bbJJ	.	16bbJJ	.	.	16bJJ
8AA	.	.	.	4c#X	.	8c#X	8eeL	16aaLL	16r	16aaLL	.	8ee	8cc#L
.	.	.	.	.	.	.	.	16gg	16ggLL	16gg	.	.	.
8AJ	.	.	.	.	.	8eJ	8cc#J	16ff#	16ff#	16ff#	.	8aJ	8eeJ
.	.	.	.	.	.	.	.	16ggJJ	16ggJJ	16ggJJ	.	.	.
=29	=29	=29	=29	=29	=29	=29	=29	=29	=29	=29	=29	=29	=29
8DL	.	4D	4A	4d	4d	8dL	8dd	16ff#LL	8ff#	16ff#LL	8D	8a	8ff#
.	.	.	.	.	.	.	.	16bb	.	16bb	.	.	.
8E	.	.	.	.	.	8g	4b	16aa	8r	16aa	8r	8r	8r
.	.	.	.	.	.	.	.	16ggJJ	.	16ggJJ	.	.	.
8F#	.	4r	4r	4r	4r	8c#X	.	16ff#LL	16r	16ff#LL	4r	8r	8r
.	.	.	.	.	.	.	.	16ee	16eeLL	16ee	.	.	.
8FF#J	.	.	.	.	.	[8f#J	8b-X	16dd	16dd	16dd	.	8cc#X	8ff#
.	.	.	.	.	.	.	.	16eeJJ	16eeJJ	16eeJJ	.	.	.
8BBL	.	2r	2r	2r	2r	8f#L]	8bn	16ddLL	8dd	16ddLL	2r	8dd	8ff#
.	.	.	.	.	.	.	.	16gg	.	16gg	.	.	.
8C	.	.	.	.	.	8A	4gg	16ff#	8r	16ff#	.	8r	8r
.	.	.	.	.	.	.	.	16eeJJ	.	16eeJJ	.	.	.
8D	.	.	.	.	.	8B	.	16ddLL	16r	16ddLL	.	8r	8r
.	.	.	.	.	.	.	.	16cc	16ccLL	16cc	.	.	.
8DDJ	.	.	.	.	.	8dJ	[8ff#	16b	16b	16b	.	8dd	8a
.	.	.	.	.	.	.	.	16ccJJ	16ccJJ	16ccJJ	.	.	.
=30	=30	=30	=30	=30	=30	=30	=30	=30	=30	=30	=30	=30	=30
!!pagebreak:original
8GGL	.	1r	1r	1r	1r	8dL	8ff#L]	16bLL	16bLL	16bLL	8GG	8dd	8b
.	.	.	.	.	.	.	.	16dd	16dd	16dd	.	.	.
8AA	.	.	.	.	.	8g	8ee	16cc#X	16cc#	16cc#X	8r	8r	8r
.	.	.	.	.	.	.	.	16eeJJ	16eeJJ	16eeJJ	.	.	.
8BB	.	.	.	.	.	8f#	8b	16ddLL	16ddLL	16ddLL	4r	8r	8r
.	.	.	.	.	.	.	.	16gg	16gg	16gg	.	.	.
8C#XJ	.	.	.	.	.	8aJ	8aJ	16ff#	16ff#	16ff#	.	8a	8gg
.	.	.	.	.	.	.	.	16eeJJ	16eeJJ	16eeJJ	.	.	.
8DL	.	.	.	.	.	8dL	8aL	16ff#LL	16ff#LL	16ff#LL	2r	8aL	16ff#LL
.	.	.	.	.	.	.	.	16ee	16ee	16ee	.	.	16ee
8G	.	.	.	.	.	8f#	8b	16dd	16dd	16dd	.	8dJ	16dd
.	.	.	.	.	.	.	.	32eeL	32eeL	32eeL	.	.	16eeJJ
.	.	.	.	.	.	.	.	32ff#JJJ	32ff#JJJ	32ff#JJJ	.	.	.
8A	.	.	.	.	.	8e	8a	8.cc#L	8.cc#L	8.cc#L	.	16aLL	8.cc#XL
.	.	.	.	.	.	.	.	.	.	.	.	16b	.
8AAJ	.	.	.	.	.	8eJ	8aJ	.	.	.	.	16a	.
.	.	.	.	.	.	.	.	16ddJk	16ddJk	16ddJk	.	16bJJ	16ddJk
=31	=31	=31	=31	=31	=31	=31	=31	=31	=31	=31	=31	=31	=31
8DL	.	4r	4r	4r	4r	4f#	8aL	16ddLL	16ddLL	16ddLL	8r	8aL	4dd
.	.	.	.	.	.	.	.	16gg	16gg	16gg	.	.	.
8E	.	.	.	.	.	.	8g	16ff#	16ff#	16ff#	16DLL	8a	.
.	.	.	.	.	.	.	.	16eeJJ	16eeJJ	16eeJJ	16DJJ	.	.
8F#	.	4D	4f#	4a	4dd	4f#	8a	16ddLL	16ddLL	16ddLL	8DL	8dd	8r
.	.	.	.	.	.	.	.	16cc	16cc	16cc	.	.	.
8DJ	.	.	.	.	.	.	8f#J	16b	16b	16b	8DJ	8ff#J	8dd
.	.	.	.	.	.	.	.	16ccJJ	16ccJJ	16ccJJ	.	.	.
8GL	.	8GL	8BL	4.b	4ee	8BL	8g	16bLL	16bLL	16bLL	8GG	8r	8eeL
.	.	.	.	.	.	.	.	16ee	16ee	16ee	.	.	.
8A	.	8AJ	8cJ	.	.	8cJ	4f#	16dd	16dd	16dd	8r	8eeL	8ff#J
.	.	.	.	.	.	.	.	16ccJJ	16ccJJ	16ccJJ	.	.	.
8B	.	4B	4d	.	4dd	4d	.	16bLL	16bLL	16bLL	8r	8dd	8r
.	.	.	.	.	.	.	.	16a	16a	16a	.	.	.
8DJ	.	.	.	8f#	.	.	8b	16g	16g	16g	8D	8dJ	8b
.	.	.	.	.	.	.	.	16aJJ	16aJJ	16aJJ	.	.	.
=32	=32	=32	=32	=32	=32	=32	=32	=32	=32	=32	=32	=32	=32
!!pagebreak:original
8EL	.	8EL	8GL	4.g	4cc	8GL	8e	16gLL	16gLL	16gLL	8GG	8r	8ccL
.	.	.	.	.	.	.	.	16cc	16cc	16cc	.	.	.
8F#	.	8F#J	8AJ	.	.	8AJ	4d	16b	16b	16b	8r	8ccL	8ddJ
.	.	.	.	.	.	.	.	16aJJ	16aJJ	16aJJ	.	.	.
8G	.	4G	4B	.	4b	4B	.	16gLL	16gLL	16gLL	4r	8b	8r
.	.	.	.	.	.	.	.	16fn	16fX	16fn	.	.	.
8BBJ	.	.	.	8d	.	.	8g	16e	16e	16e	.	8BJ	8g
.	.	.	.	.	.	.	.	16fJJ	16fJJ	16fJJ	.	.	.
8CL	.	4C	8.cL	4e	2a	8.cL	8eL	16eLL	16eLL	16eLL	4r	8r	16aLL
.	.	.	.	.	.	.	.	16g	16g	16g	.	.	16bJ
8AA	.	.	.	.	.	.	8c	16f#X	16f#	16f#X	.	8aL	[8ccJ
.	.	.	16BJk	.	.	16BJk	.	32gL	32gL	32gL	.	.	.
.	.	.	.	.	.	.	.	32aJJJ	32aJJJ	32aJJJ	.	.	.
8D	.	4D	4A	4d	.	4A	8d	8.f#L	8.f#L	8.f#L	16DLL	8a	16ccLL]
.	.	.	.	.	.	.	.	.	.	.	16D	.	16b
8DDJ	.	.	.	.	.	.	8dJ	.	.	.	16D	8dJ	16a
.	.	.	.	.	.	.	.	16gJk	16gJk	16gJk	16DJJ	.	16ccJJ
=33	=33	=33	=33	=33	=33	=33	=33	=33	=33	=33	=33	=33	=33
4GG	.	4GG	4B	4d	4g	8BL	8dL	8gL	8gL	8gL	4GG	16gLL	16bLL
.	.	.	.	.	.	.	.	.	.	.	.	16a	16cc
.	.	.	.	.	.	8dd	8gg	8bb	8bb	8bb	.	16g	16b
.	.	.	.	.	.	.	.	.	.	.	.	16aJJ	16ccJJ
4r	.	4r	4r	4r	4r	8b	8dd	8gg	8gg	8gg	4r	16bLL	16ddLL
.	.	.	.	.	.	.	.	.	.	.	.	16cc	16ee
.	.	.	.	.	.	8gJ	8bJ	8ddJ	8ddJ	8ddJ	.	16b	16dd
.	.	.	.	.	.	.	.	.	.	.	.	16ccJJ	16eeJJ
4GG	.	2r	2r	2r	2r	8r	8r	8r	8r	8r	2r	16aLL	16ccLL
.	.	.	.	.	.	.	.	.	.	.	.	16b	16dd
.	.	.	.	.	.	8ccL	8ff#L	8aaL	8aaL	8aaL	.	16a	16cc
.	.	.	.	.	.	.	.	.	.	.	.	16bJJ	16ddJJ
4r	.	.	.	.	.	8a	8cc	8ff#	8ff#	8ff#	.	16ccLL	16eeLL
.	.	.	.	.	.	.	.	.	.	.	.	16dd	16ff#
.	.	.	.	.	.	8f#J	8aJ	8ddJ	8ddJ	8ddJ	.	16cc	16ee
.	.	.	.	.	.	.	.	.	.	.	.	16ddJJ	16ff#JJ
=34	=34	=34	=34	=34	=34	=34	=34	=34	=34	=34	=34	=34	=34
!!pagebreak:original
8GGL	.	1r	1r	1r	1r	8dL	8bL	16r	16r	16r	4GG	[1b	[1dd
.	.	.	.	.	.	.	.	16ggLL	16ggLL	16ggLL	.	.	.
8d	.	.	.	.	.	8B	8d	16ff#	16ff#	16ff#	.	.	.
.	.	.	.	.	.	.	.	16eeJJ	16eeJJ	16eeJJ	.	.	.
8B	.	.	.	.	.	8d	8g	16ddLL	16ddLL	16ddLL	4r	.	.
.	.	.	.	.	.	.	.	16cc	16cc	16cc	.	.	.
8GJ	.	.	.	.	.	8gJ	8bJ	16b	16b	16b	.	.	.
.	.	.	.	.	.	.	.	16ccJJ	16ccJJ	16ccJJ	.	.	.
8DL	.	.	.	.	.	8r	8r	16bLL	16bLL	16bLL	4GG	.	.
.	.	.	.	.	.	.	.	16ee	16ee	16ee	.	.	.
8B	.	.	.	.	.	8dL	8gL	16dd	16dd	16dd	.	.	.
.	.	.	.	.	.	.	.	16ccJJ	16ccJJ	16ccJJ	.	.	.
8G	.	.	.	.	.	8g	8b	16bLL	16bLL	16bLL	4r	.	.
.	.	.	.	.	.	.	.	16a	16a	16a	.	.	.
8DJ	.	.	.	.	.	8bJ	8ddJ	16g	16g	16g	.	.	.
.	.	.	.	.	.	.	.	16aJJ	16aJJ	16aJJ	.	.	.
=35	=35	=35	=35	=35	=35	=35	=35	=35	=35	=35	=35	=35	=35
8BBL	.	1r	1r	1r	1r	8r	8r	16gLL	16gLL	16gLL	4GG	2.b]	2dd]
.	.	.	.	.	.	.	.	16cc	16cc	16cc	.	.	.
8G	.	.	.	.	.	8gL	8bL	16b	16b	16b	.	.	.
.	.	.	.	.	.	.	.	16aJJ	16aJJ	16aJJ	.	.	.
8D	.	.	.	.	.	8b	8dd	16gLL	16gLL	16gLL	4r	.	.
.	.	.	.	.	.	.	.	16fn	16fX	16fn	.	.	.
8BBJ	.	.	.	.	.	8ddJ	8ggJ	16e	16e	16e	.	.	.
.	.	.	.	.	.	.	.	16fJJ	16fJJ	16fJJ	.	.	.
8GGL	.	.	.	.	.	8r	8r	16eLL	16eLL	16eLL	8r	.	2cc
.	.	.	.	.	.	.	.	16d	16d	16d	.	.	.
8GG	.	.	.	.	.	8cL	8gL	16e	16e	16e	8GGL	.	.
.	.	.	.	.	.	.	.	16gJJ	16gJJ	16gJJ	.	.	.
8GG	.	.	.	.	.	8cc	8a	16f#XLL	16f#LL	16f#XLL	8GG	4a	.
.	.	.	.	.	.	.	.	16e	16e	16e	.	.	.
8GGJ	.	.	.	.	.	8aJ	8ccJ	16f#	16f#	16f#	8GGJ	.	.
.	.	.	.	.	.	.	.	16aJJ	16aJJ	16aJJ	.	.	.
=36	=36	=36	=36	=36	=36	=36	=36	=36	=36	=36	=36	=36	=36
!!pagebreak:original
4GG	.	1r	1r	1r	1r	16r	16r	16dLL	16dLL	8d	4GG	4g	8bL
.	.	.	.	.	.	16ccLL	16eeLL	16g	16g	.	.	.	.
.	.	.	.	.	.	16b	16dd	16f#	16f#	8r	.	.	8d
.	.	.	.	.	.	16aJJ	16ccJJ	16eJJ	16eJJ	.	.	.	.
4r	.	.	.	.	.	16gLL	16bLL	16dLL	16dLL	4r	4r	4r	8g
.	.	.	.	.	.	16e	16a	16c	16c	.	.	.	.
.	.	.	.	.	.	16d	16g	16B	16B	.	.	.	8aJ
.	.	.	.	.	.	16cJJ	16f#JJ	16AJJ	16cJJ	.	.	.	.
4GG	.	.	.	.	.	4B	4g	4G	4d	16r	4GG	8r	16bLL
.	.	.	.	.	.	.	.	.	.	16aLL	.	.	16a
.	.	.	.	.	.	.	.	.	.	16b	.	8dL	16g
.	.	.	.	.	.	.	.	.	.	16ccJJ	.	.	16aJJ
4r	.	.	.	.	.	4r	4r	4r	4r	16ddLL	4r	8g	16bLL
.	.	.	.	.	.	.	.	.	.	16gg	.	.	16dd
.	.	.	.	.	.	.	.	.	.	16ff#	.	8aJ	16cc
.	.	.	.	.	.	.	.	.	.	16aaJJ	.	.	16eeJJ
=37	=37	=37	=37	=37	=37	=37	=37	=37	=37	=37	=37	=37	=37
4GG	.	1r	1r	1r	1r	2r	2r	8r	8r	8ggL	4GG	16bLL	16ddLL
.	.	.	.	.	.	.	.	.	.	.	.	16a	16cc
.	.	.	.	.	.	.	.	8dL	8dL	8d	.	16g	16b
.	.	.	.	.	.	.	.	.	.	.	.	16aJJ	16ccJJ
4r	.	.	.	.	.	.	.	8g	8g	8g	4r	16bLL	8ddL
.	.	.	.	.	.	.	.	.	.	.	.	16dd	.
.	.	.	.	.	.	.	.	8aJ	8aJ	8aJ	.	16cc	8ff#J
.	.	.	.	.	.	.	.	.	.	.	.	16eeJJ	.
8r	.	.	.	.	.	8r	8r	16bLL	16bLL	16bLL	8r	16ddLL	8ggL
.	.	.	.	.	.	.	.	16a	16a	16a	.	16cc	.
8DL	.	.	.	.	.	8dL	8f#L	16g	16g	16g	8DL	16b	16ddL
.	.	.	.	.	.	.	.	16aJJ	16aJJ	16aJJ	.	16aJJ	16ccJJ
8G	.	.	.	.	.	8d	8g	16bLL	16bLL	16bLL	8GG	8gL	16bLL
.	.	.	.	.	.	.	.	16cc	16cc	16cc	.	.	16cc
8AJ	.	.	.	.	.	8cJ	8f#J	16b	16b	16b	8DJ	8dJ	16b
.	.	.	.	.	.	.	.	16ccJJ	16ccJJ	16ccJJ	.	.	16ccJJ
=38	=38	=38	=38	=38	=38	=38	=38	=38	=38	=38	=38	=38	=38
!!pagebreak:original
8BL	.	1r	1r	1r	1r	8BL	4.g	16ddLL	16ddLL	16ddLL	8GG	8g	8dd
.	.	.	.	.	.	.	.	16gg	16gg	16gg	.	.	.
8c	.	.	.	.	.	8A	.	16ff#	16ff#	16ff#	8r	8r	8r
.	.	.	.	.	.	.	.	16eeJJ	16eeJJ	16eeJJ	.	.	.
8d	.	.	.	.	.	8A	.	16ddLL	16ddLL	16ddLL	8r	8r	8r
.	.	.	.	.	.	.	.	16cc	16cc	16cc	.	.	.
8DJ	.	.	.	.	.	[8dJ	[8f#	16b	16b	16b	8D	8a	8ff#
.	.	.	.	.	.	.	.	16ccJJ	16ccJJ	16ccJJ	.	.	.
8GL	.	.	.	.	.	8dL]	8f#]	16bLL	16bLL	16bLL	8GG	8b	8gg
.	.	.	.	.	.	.	.	16ee	16ee	16ee	.	.	.
8A	.	.	.	.	.	8A	4e	16dd	16dd	16dd	8r	8r	8r
.	.	.	.	.	.	.	.	16ccJJ	16ccJJ	16ccJJ	.	.	.
8B	.	.	.	.	.	8F#	.	16bLL	16bLL	16bLL	4r	8r	8r
.	.	.	.	.	.	.	.	16a	16a	16a	.	.	.
8BBJ	.	.	.	.	.	[8BJ	8d#X	16g	16g	16g	.	8b	8ff#
.	.	.	.	.	.	.	.	16aJJ	16aJJ	16aJJ	.	.	.
=39	=39	=39	=39	=39	=39	=39	=39	=39	=39	=39	=39	=39	=39
8EL	.	1r	1r	1r	1r	8BL]	8e	16gLL	16gLL	16gLL	1r	8g	8ee
.	.	.	.	.	.	.	.	16cc	16cc	16cc	.	.	.
8Fn	.	.	.	.	.	8d	4cc	16b	16b	16b	.	8r	8r
.	.	.	.	.	.	.	.	16aJJ	16aJJ	16aJJ	.	.	.
8G	.	.	.	.	.	8e	.	16gLL	16gLL	16gLL	.	8r	8r
.	.	.	.	.	.	.	.	16fn	16fX	16fn	.	.	.
8GGJ	.	.	.	.	.	[8gJ	[8b	16e	16e	16e	.	8g	8dd
.	.	.	.	.	.	.	.	16fJJ	16fJJ	16fJJ	.	.	.
8CCL	.	.	.	.	.	8gL]	8bL]	16eLL	16eLL	16eLL	.	8gL	8eeL
.	.	.	.	.	.	.	.	16g	16g	16g	.	.	.
8C	.	.	.	.	.	8d	8a	16f#X	16f#	16f#X	.	8a	8ddJ
.	.	.	.	.	.	.	.	16aJJ	16aJJ	16aJJ	.	.	.
8BB	.	.	.	.	.	8d	8dd	16gLL	16gLL	16gLL	.	8b	[4dd
.	.	.	.	.	.	.	.	16gg	16gg	16gg	.	.	.
8AAJ	.	.	.	.	.	8f#J	8ccJ	16ff#	16ff#	16ff#	.	8ccJ	.
.	.	.	.	.	.	.	.	16eeJJ	16eeJJ	16eeJJ	.	.	.
=40	=40	=40	=40	=40	=40	=40	=40	=40	=40	=40	=40	=40	=40
!!pagebreak:original
8BBL	.	1r	1r	1r	1r	8gL	8bL	16ddLL	16ddLL	16ddLL	8r	16bLL	16ddLL]
.	.	.	.	.	.	.	.	16cc	16cc	16cc	.	16aJ	16cc
8C	.	.	.	.	.	8G	8g	16b	16b	16b	8GG	8gJ	16b
.	.	.	.	.	.	.	.	32ccL	32ccL	32ccL	.	.	16ccJJ
.	.	.	.	.	.	.	.	32ddJJJ	32ddJJJ	32ddJJJ	.	.	.
8D	.	.	.	.	.	8d	8g	8.aL	8.aL	8.aL	16DLL	16dLL	8.aL
.	.	.	.	.	.	.	.	.	.	.	16D	16BJ	.
8DDJ	.	.	.	.	.	8AJ	8f#J	.	.	.	16D	8dJ	.
.	.	.	.	.	.	.	.	16gJk	16gJk	16gJk	16DJJ	.	16gJk
2GG	.	.	.	.	.	2B	2d	2g	2g	2g	2GG	2B	2g
==	==	==	==	==	==	==	==	==	==	==	==	==	==
*-	*-	*-	*-	*-	*-	*-	*-	*-	*-	*-	*-	*-	*-
!!!system-decoration: s1,s2,s3,s4,s5,s6,s7,s8,s9,s10,s11,s12,s13
